X:8654
%17949
T:Tzadik Katamar
O:Israeli
I:choreographer Y. Gaby
Q:1/4=180
L:1/8
M:4/4
P:ABCB 
K:Am
P:A
c2 B2 A2 ^G2| ^F2 ^G2 E2 G2| B2 A6-| A2 z6|
P:B
|: "Am"A2 .A.B .c2 .A2| "E"^G2 .G.A .B2 G2| "Am"A2 .A.B .c2 .A2| e4 z4:|\
"Dm".d4 .d4| .d2 cd B2 Bc| "Am"e2 e2 e2 d2 | c2 B2 A2 c2|
B2 A2 "Em"^G2 ^F2| ^G2 E2 "Em"G2 B2| "Am"c8| "A"^c4 d2 e2|\
"Dm".d4 .d4| .d2 cd B2 Bc|
%Error : Guitar chord name not properly closed
 "A"
